public/icons/vote-star-filled.svg

<svg width="16" height="17" viewBox="0 0 16 17" fill="none" xmlns="http://www.w3.org/2000/svg">
<path d="M12 15.1674C11.8713 15.1674 11.742 15.13 11.63 15.0554L7.99999 12.6354L4.36999 15.0554C4.13799 15.21 3.83333 15.2047 3.60666 15.0394C3.38133 14.8747 3.28266 14.5867 3.35933 14.318L4.58466 10.028L1.52866 6.97203C1.33799 6.78203 1.28133 6.4947 1.38399 6.24536C1.48666 5.9967 1.73066 5.83403 1.99999 5.83403H5.58799L7.40399 2.2027C7.62999 1.75136 8.37066 1.75136 8.59666 2.2027L10.4127 5.83403H14C14.2693 5.83403 14.5133 5.9967 14.616 6.24536C14.7187 6.4947 14.662 6.78203 14.4713 6.97203L11.4153 10.028L12.6407 14.318C12.7173 14.5867 12.6187 14.8747 12.3933 15.0394C12.276 15.1247 12.138 15.1674 12 15.1674Z" fill="#0055CC"/>
</svg>

<svg xmlns="http://www.w3.org/2000/svg" viewBox="0 0 16 17"><path d="M12 15.167a.668.668 0 0 1-.37-.112L8 12.635l-3.63 2.42a.667.667 0 0 1-1.01-.737l1.225-4.29-3.056-3.056A.668.668 0 0 1 2 5.834h3.588l1.816-3.631c.226-.452.967-.452 1.193 0l1.816 3.631H14a.667.667 0 0 1 .471 1.138l-3.056 3.056 1.226 4.29a.667.667 0 0 1-.641.85Z"/></svg>
